X: 8
T: Kypasj\"arven polkka
R: polka
O: efter Albin Hjelm
B:
D:
Z: John Chambers <jc@trillian.mit.edu>
N:
M: 2/4
L: 1/16
K: D
|: "G"B3A G2F2 | "A"E2A2 AAA2 | B2A2 f3c |1,3 "D"e2d2 dcd2 :|2,4 "D"e2d2 d4 :|
|: "Bm"f2B2 b3f | "A"a2c2 cBA2 | c2a2 f3c |1,3 "D"e2d2 dfB2 :|2,4 "D"e2d2 d4 :|
%%sep 1 1 10cm
